X:235
T:Jug of Punch, The
R:reel
H:Also in Edor, #538
Z:id:hn-reel-235
M:C|
K:Ddor
A,DDC DEFG | AG~G2 AcGF | EA,A,G, A,2EF | G2AG FDEC |
A,DDE FDDE | FDED CDEG | cded cAGE |1 FGEF D2DC :|2 FGEF D2 (3EFG ||
|: Adde ~f3d | efed cAGc | AGAB ~c3d | eaag edcA |
~d3e f2fd | efed cAAB | ~c3A B2AG |1 FDEC D2 (3EFG :|2 FDEC D2DC ||
P:variations
|: A,DDC DEFG | AG~G2 AFGF | EA,~A,2 CDEF | G2AG FDEC |
D2DE FDDE | FDED CDEG | cded cAGE |1 F2EF D2DC :|2 F2EF DEFG ||
|: Adde fedf | efed cAGc | ~A3B cBcd | egag eddc |
Adde f2df | eaed cAAB | cdcA BGAG |1 FDEC DEFG :|2 FGEF D2DC ||

